X:1
T:Galliard 10
T:Francis Cutting
T:Glasgow University Library MS R.d.43, Euing Lute Book, f. 29
T:Arranged by Gary Kerr
%%score ( 1 2 3 )
L:1/8
Q:1/4=96
M:3/4
K:G
V:1 treble-8 nm="Guitar"
V:2 treble-8 
V:3 treble-8 
V:1
"^Andante""^I" e>!3!f !4!g2 gf | e6 | !4!g2 !1!f2 e2 | !2!d4 e2 | B>!2!^c !2!d2"^III" !4!=c2 | %5
 B4 ef |"^II" !4!g2 e2 !0!e!4!^d- | d"^I" e3 e2 ||"^II" e/!4!^d/e/!2!f/ !4!ge"^I" g!3!f | e6 | %10
 g2 f2 e2 | d4 e2 | B/!2!A/B/!2!^c/ !2!d2"^III" !4!=c2 | B4 ef | g2 e2 e^d- | d e3 e2 || %16
"^II" !2!d2 d!2!^c B!3!A | G2 B2 e!4!d | !3!^c2 e2 !4!a!4!g | !1!f2 fe !2!d"^½CII"^c | %20
 !2!d2 d!1!A B!2!^c | !2!d !1!f2 e2 !4!^d | e !4!g2 !4!f e2- | e ^d2 e d2 || %24
"^<font face=\"Times New Roman\"/>CII" !2!d!4!B/^c/ d!2!c B!3!A | G/!4!F/G/!2!A/ B2 ed | %26
 !2!^c/B/c/d/ e2 !4!a!4!g | !1!f/e/f/g/ fe !2!d"^½CII"^c | dB/d/ d2 B^c | d f2 e- e/e/^d | %30
 e !4!g2 !3!f e2 | !4!^d!0!B/!2!^c/ d/e/!2!f/!4!g/ f2 || e2 !4!d2 !1!c2 | B2 A2 !breath!G !4!g | %34
 !2!f2 e2 !4!d2 | !breath!!1!A3 !4!b !4!a2 | !4!g2 !1!f2 e2 | %37
"^*""^* Don't play the B in the inner voice." !4!^d3 !4!=d !1!cB | !2!A2 B2 !4!A2 | z ^G2 A G2 || %40
 e2 d2 c2 | B>B A2 !breath!G g | f>f e2 d2 | !breath!!1!A3 e/b/ a2 | g>g f2 e2 |"^*" ^d3 =d cB | %46
 A2 B4 | z ^G- G/A/G/F/ G2 |] %48
V:2
 !2!E3 E !1!^D2 | !2!E>!4!F GE"^II" !3!F2 | !1!E2 D2 !3!^C2 | !1!B,>!3!^C !0!DB, !3!=C2 | %4
 !1!B,3 B, A,2 | !1!G,>A,"^I" !2!B,!3!G, !3!C2 | E,>!2!F, !3!G,>A, !1!B,2 | E,4 E,2 || %8
 !1![EB]4 [^DB]2 | !2!E/^D/E/F/ GE"^II" F2 | E2 D2 ^C2 | B,>^C DB, =C2 | !1!B,3 B, A,2 | %13
 !1!G,>A,"^I" !2!B,!3!G, C2 | E,E,/F,/ G,A, B,2 | E,4 E,2 || !1!B,3 A, !4!G,!2!F, | %17
 E,3 D !3!^C!2!B, | A,3 G !3!F!1!E | D3 !2!^c !3!BA | !4!G3 !3!F !1![EG]2 | %21
 !4!!3![DF]2 !0![GB]2 !3!!1![FA]2 | !2!E2 !1!^D2 !2!EE, | !1!B,6 || !1!B,3 A, !4!G,!2!F, | %25
 E,3 D ^CB, | A,3 G !3!F!1!E | D3 !2!^c !3!BA | G3 F E2 | D2 G2 F2 | !2!E2 !1!^D2 !2!EE, | %31
 !1!!3![B,F]6 || !3!C2 !2!B,2 A,2 | !2!G,2 !2!F,2 !1!E2 | D2 !3!C2 !2!B,2 | !3!D4 !2!F2 | %36
 !2!E2 D2 !3!^C2 | !1!B,A, !3!G,2 A,2 | !3!C2 !2!B,4 | E,4 E,2 || C2 B,2 A,2 | G,2 F,2 E,2 | %42
 D2 C2 B,2 | !3!D4 F2 | E2 D2 ^C2 | B,A, G,2 A,2 | C2 B,2 B,2 | E,4 E,2 |] %48
V:3
 [GB]2 B2 B2 | B2 B2 !1!A!4!^d | B>!2!^c !2!dB- B!2!^A | !4!F4 G!2!A | G2 !3!F2 !3!G!2!F | %5
 [DG]4 !1!c2 | !1![EB]2 [EB]2 !3!!0![FB]2- | [FB][^GB] EA [GB]2 || x6 | B4 A^d | BB/^c/ d B2 ^A | %11
 F4 GA | G2 !3!F2 !3!GF | G/!2!F/G- G2 c2 | [EB]2 [EB]2 [FB]2- | [FB][^GB] E/A/G/F/ [GB]2 || %16
 !3!F2 F2 G!1!^D | !1!E E3 !1!A!1!^G | z !2!A3 !2!d!2!^c | !2!d d2 x3 | G !3!B2 x3 | x6 | %22
 !1!c2 B!3!A [GB]2- | [GB]B F2 B2 || !3!F4 G!1!^D | !1!E2 G2 A^G | !1!A2 ^c2 !2!d!2!c | !2!d3 x3 | %28
 x3 A G2 | F2 B2 A2 | B3 B [GB]2 | x6 || !1!A3 G2 !4!F- | F !1!E2 !1!^D E2 | z B2 !1!A2 G | %35
 !4!G!2!F"^V" !0!G !1!e2 !1!d | z !3!^c2 B2 !2!^A | !3![FB]2 [DG]2 !2!AG | !4!F!1!E !1!^D !3!E2 D | %39
 z E B,2 [B,E]2 || AG/A/- A G2 F- | F E2 ^D E [EB] | z B2 A2 G | !4!G(!2!F/!4!G/)"^V" !0!G3 d- | %44
 d ^c2 B2 ^A | [FB]2 [DG]2 AG | FE ^DE- E/!4!F/D/!3!A/ | z E B,2 [B,E]2 |] %48

